austria/municipalities/31035.svg

<?xml version="1.0" encoding="UTF-8"?>
<!DOCTYPE svg PUBLIC "-//W3C//DTD SVG 1.1//EN" "http://www.w3.org/Graphics/SVG/1.1/DTD/svg11.dtd">
<svg xmlns="http://www.w3.org/2000/svg" version="1.1" width="250px" height="274px" style="shape-rendering:geometricPrecision; text-rendering:geometricPrecision; image-rendering:optimizeQuality; fill-rule:evenodd; clip-rule:evenodd" xmlns:xlink="http://www.w3.org/1999/xlink">
<g><path style="opacity:1" fill="#fdfdfd" d="M -0.5,-0.5 C 82.8333,-0.5 166.167,-0.5 249.5,-0.5C 249.5,90.8333 249.5,182.167 249.5,273.5C 166.167,273.5 82.8333,273.5 -0.5,273.5C -0.5,182.167 -0.5,90.8333 -0.5,-0.5 Z"/></g>
<g><path style="opacity:1" fill="#6e7550" d="M 91.5,19.5 C 86.1753,10.8352 84.1753,11.5019 85.5,21.5C 83.9735,20.5081 83.3068,19.0081 83.5,17C 83.1043,13.0612 84.7709,11.7279 88.5,13C 90.4506,14.7342 91.4506,16.9009 91.5,19.5 Z"/></g>
<g><path style="opacity:1" fill="#6b7c56" d="M 122.5,10.5 C 125.794,12.9561 126.127,15.6228 123.5,18.5C 123.599,15.7628 123.265,13.0961 122.5,10.5 Z"/></g>
<g><path style="opacity:1" fill="#9d9d44" d="M 157.5,14.5 C 156.629,17.1123 155.963,19.779 155.5,22.5C 155.5,22.8333 155.5,23.1667 155.5,23.5C 152.108,22.01 150.774,19.3434 151.5,15.5C 152.292,13.7428 153.625,12.4095 155.5,11.5C 156.919,12.0047 157.585,13.0047 157.5,14.5 Z"/></g>
<g><path style="opacity:1" fill="#5b633c" d="M 122.5,10.5 C 119.305,10.5131 117.638,12.1798 117.5,15.5C 118.884,18.3277 119.551,21.3277 119.5,24.5C 119.684,27.2046 119.017,29.5379 117.5,31.5C 117.749,28.9979 118.083,26.4979 118.5,24C 116.966,20.2984 116.466,16.465 117,12.5C 118.204,8.65996 120.037,7.9933 122.5,10.5 Z"/></g>
<g><path style="opacity:1" fill="#797a5b" d="M 157.5,14.5 C 158.702,17.4868 158.035,20.1535 155.5,22.5C 155.963,19.779 156.629,17.1123 157.5,14.5 Z"/></g>
<g><path style="opacity:1" fill="#aa9f45" d="M 91.5,19.5 C 91.5,20.8333 91.5,22.1667 91.5,23.5C 89.1417,23.7475 87.1417,23.0808 85.5,21.5C 84.1753,11.5019 86.1753,10.8352 91.5,19.5 Z"/></g>
<g><path style="opacity:1" fill="#7a794c" d="M 123.5,20.5 C 123.423,24.2148 123.756,27.8815 124.5,31.5C 121.178,27.9557 120.845,24.289 123.5,20.5 Z"/></g>
<g><path style="opacity:1" fill="#817b40" d="M 151.5,15.5 C 150.774,19.3434 152.108,22.01 155.5,23.5C 154,27.3258 153.334,31.3258 153.5,35.5C 152.274,33.0576 150.941,30.7242 149.5,28.5C 149.335,24.8183 149.501,21.1516 150,17.5C 150.278,16.5842 150.778,15.9175 151.5,15.5 Z"/></g>
<g><path style="opacity:1" fill="#6a7254" d="M 55.5,30.5 C 57.9148,29.3516 59.9148,30.0183 61.5,32.5C 59.5,31.8333 57.5,31.1667 55.5,30.5 Z"/></g>
<g><path style="opacity:1" fill="#a7a247" d="M 55.5,30.5 C 57.5,31.1667 59.5,31.8333 61.5,32.5C 61.3146,38.5596 59.4813,38.893 56,33.5C 55.5172,32.552 55.3505,31.552 55.5,30.5 Z"/></g>
<g><path style="opacity:1" fill="#76744c" d="M 183.5,36.5 C 181.194,39.4729 178.527,42.1395 175.5,44.5C 176.048,42.6064 177.048,40.9397 178.5,39.5C 177.767,38.913 176.767,38.913 175.5,39.5C 177.541,35.2594 180.207,31.4261 183.5,28C 186.23,27.0585 187.563,28.0585 187.5,31C 187.471,33.9251 186.138,35.7585 183.5,36.5 Z"/></g>
<g><path style="opacity:1" fill="#a5a146" d="M 183.5,36.5 C 182.033,37.2916 180.7,37.2916 179.5,36.5C 180.313,32.4689 182.646,30.1356 186.5,29.5C 186.312,32.2061 185.312,34.5395 183.5,36.5 Z"/></g>
<g><path style="opacity:1" fill="#7f804a" d="M 91.5,19.5 C 92.3195,22.3054 92.8195,25.3054 93,28.5C 94.705,30.5766 95.8717,32.91 96.5,35.5C 93.8869,32.9888 91.7202,29.9888 90,26.5C 89.7685,30.5548 89.2685,34.5548 88.5,38.5C 89.2454,42.117 87.5788,44.117 83.5,44.5C 89.3611,37.279 90.0278,29.6123 85.5,21.5C 87.1417,23.0808 89.1417,23.7475 91.5,23.5C 91.5,22.1667 91.5,20.8333 91.5,19.5 Z"/></g>
<g><path style="opacity:1" fill="#787b45" d="M 55.5,30.5 C 55.3505,31.552 55.5172,32.552 56,33.5C 59.4813,38.893 61.3146,38.5596 61.5,32.5C 64.3675,39.5311 69.5342,43.8645 77,45.5C 79.137,44.9233 81.3037,44.59 83.5,44.5C 81.6505,45.8366 79.4839,46.5033 77,46.5C 74.1711,45.7971 71.3378,45.6305 68.5,46C 69.1667,46.3333 69.8333,46.6667 70.5,47C 69.6634,48.0113 69.33,49.1779 69.5,50.5C 68.8333,50.5 68.1667,50.5 67.5,50.5C 67.6567,49.1266 67.49,47.7932 67,46.5C 63.7535,42.638 60.0869,39.3046 56,36.5C 54.4577,34.4346 54.291,32.4346 55.5,30.5 Z"/></g>
<g><path style="opacity:1" fill="#a2983a" d="M 122.5,10.5 C 123.265,13.0961 123.599,15.7628 123.5,18.5C 123.5,19.1667 123.5,19.8333 123.5,20.5C 120.845,24.289 121.178,27.9557 124.5,31.5C 126.262,32.2623 127.262,33.5956 127.5,35.5C 128.591,38.4278 130.591,40.5945 133.5,42C 118.052,41.4232 103.052,43.2566 88.5,47.5C 99.2318,46.5524 109.898,45.2191 120.5,43.5C 128.171,44.1681 135.838,44.8347 143.5,45.5C 151.811,46.5206 159.811,48.6872 167.5,52C 160.333,47.0738 152.333,44.5738 143.5,44.5C 140.432,44.4533 137.432,43.9533 134.5,43C 136.066,42.3918 137.4,41.5585 138.5,40.5C 138.833,40.5 139.167,40.5 139.5,40.5C 144.665,38.0039 147.998,34.0039 149.5,28.5C 150.941,30.7242 152.274,33.0576 153.5,35.5C 155.153,38.1305 156.819,40.7972 158.5,43.5C 162.953,45.9632 167.62,46.1299 172.5,44C 174.141,42.871 175.141,41.371 175.5,39.5C 176.767,38.913 177.767,38.913 178.5,39.5C 177.048,40.9397 176.048,42.6064 175.5,44.5C 173.836,45.9488 173.002,47.9488 173,50.5C 169.96,55.2695 166.46,59.6028 162.5,63.5C 157.053,60.8494 151.386,58.6827 145.5,57C 143.833,56.3333 142.167,56.3333 140.5,57C 145.794,57.8178 145.794,58.3178 140.5,58.5C 132.198,57.4504 123.865,56.617 115.5,56C 119.5,55.6667 123.5,55.3333 127.5,55C 125.833,54.6667 124.167,54.3333 122.5,54C 127.566,50.6109 127.066,47.7776 121,45.5C 115.858,47.4207 115.358,50.0874 119.5,53.5C 115.289,54.9022 110.956,55.7356 106.5,56C 109.167,56.3333 111.833,56.6667 114.5,57C 109.511,57.9744 104.511,58.8077 99.5,59.5C 98.448,59.6495 97.448,59.4828 96.5,59C 99.4245,58.0124 102.424,57.3457 105.5,57C 102.833,56.3333 100.167,56.3333 97.5,57C 91.5933,59.7886 85.5933,62.2886 79.5,64.5C 76.1667,59.8333 72.8333,55.1667 69.5,50.5C 69.33,49.1779 69.6634,48.0113 70.5,47C 69.8333,46.6667 69.1667,46.3333 68.5,46C 71.3378,45.6305 74.1711,45.7971 77,46.5C 79.4839,46.5033 81.6505,45.8366 83.5,44.5C 87.5788,44.117 89.2454,42.117 88.5,38.5C 89.2685,34.5548 89.7685,30.5548 90,26.5C 91.7202,29.9888 93.8869,32.9888 96.5,35.5C 99.6267,38.1208 103.127,40.1208 107,41.5C 109.042,39.9573 111.208,38.6239 113.5,37.5C 115.822,36.1979 117.155,34.1979 117.5,31.5C 119.017,29.5379 119.684,27.2046 119.5,24.5C 119.551,21.3277 118.884,18.3277 117.5,15.5C 117.638,12.1798 119.305,10.5131 122.5,10.5 Z"/></g>
<g><path style="opacity:1" fill="#656428" d="M 143.5,44.5 C 152.333,44.5738 160.333,47.0738 167.5,52C 159.811,48.6872 151.811,46.5206 143.5,45.5C 143.5,45.1667 143.5,44.8333 143.5,44.5 Z"/></g>
<g><path style="opacity:1" fill="#554c2d" d="M 127.5,35.5 C 129.296,36.7927 130.963,38.2927 132.5,40C 134.473,40.4955 136.473,40.6621 138.5,40.5C 137.4,41.5585 136.066,42.3918 134.5,43C 137.432,43.9533 140.432,44.4533 143.5,44.5C 143.5,44.8333 143.5,45.1667 143.5,45.5C 135.838,44.8347 128.171,44.1681 120.5,43.5C 109.898,45.2191 99.2318,46.5524 88.5,47.5C 103.052,43.2566 118.052,41.4232 133.5,42C 130.591,40.5945 128.591,38.4278 127.5,35.5 Z"/></g>
<g><path style="opacity:1" fill="#62653e" d="M 175.5,39.5 C 175.141,41.371 174.141,42.871 172.5,44C 167.62,46.1299 162.953,45.9632 158.5,43.5C 165.048,45.6893 170.715,44.356 175.5,39.5 Z"/></g>
<g><path style="opacity:1" fill="#56573e" d="M 117.5,31.5 C 117.155,34.1979 115.822,36.1979 113.5,37.5C 114.34,35.1475 115.674,33.1475 117.5,31.5 Z"/></g>
<g><path style="opacity:1" fill="#686a46" d="M 149.5,28.5 C 147.998,34.0039 144.665,38.0039 139.5,40.5C 143.24,36.7672 146.573,32.7672 149.5,28.5 Z"/></g>
<g><path style="opacity:1" fill="#626223" d="M 88.5,47.5 C 83.9034,49.6362 79.2367,51.4695 74.5,53C 78.6125,49.7778 83.2792,47.9445 88.5,47.5 Z"/></g>
<g><path style="opacity:1" fill="#030303" d="M 140.5,58.5 C 141.209,59.404 142.209,59.7373 143.5,59.5C 147.252,67.7455 153.586,72.9122 162.5,75C 167.833,75.6667 173.167,75.6667 178.5,75C 184.483,73.2292 190.483,71.8959 196.5,71C 206.245,78.2889 216.078,85.4556 226,92.5C 223.698,97.2182 221.698,102.218 220,107.5C 219.72,112.197 219.22,116.863 218.5,121.5C 222.067,139.213 225.067,157.046 227.5,175C 224.787,198.427 214.454,217.76 196.5,233C 189.893,237.424 182.893,241.091 175.5,244C 163.844,246.996 152.177,249.996 140.5,253C 133.447,255.73 127.947,260.23 124,266.5C 122.533,263.734 120.7,261.234 118.5,259C 114.5,257 110.5,255 106.5,253C 88.7233,250.405 71.7233,245.405 55.5,238C 33.99,223.327 21.6566,202.993 18.5,177C 20.4454,158.091 22.7787,139.257 25.5,120.5C 25.6833,114.551 24.5166,108.885 22,103.5C 20.5331,100.734 18.6998,98.2336 16.5,96C 27.309,88.0249 37.9757,79.8583 48.5,71.5C 61.9362,77.4682 75.6029,77.9682 89.5,73C 93.8072,69.5353 97.1406,65.3687 99.5,60.5C 99.5,60.1667 99.5,59.8333 99.5,59.5C 104.511,58.8077 109.511,57.9744 114.5,57C 111.833,56.6667 109.167,56.3333 106.5,56C 110.956,55.7356 115.289,54.9022 119.5,53.5C 115.358,50.0874 115.858,47.4207 121,45.5C 127.066,47.7776 127.566,50.6109 122.5,54C 124.167,54.3333 125.833,54.6667 127.5,55C 123.5,55.3333 119.5,55.6667 115.5,56C 123.865,56.617 132.198,57.4504 140.5,58.5 Z"/></g>
<g><path style="opacity:1" fill="#635a2f" d="M 99.5,59.5 C 99.5,59.8333 99.5,60.1667 99.5,60.5C 98.8333,60.5 98.1667,60.5 97.5,60.5C 89.467,62.8342 81.8003,66.1675 74.5,70.5C 74.1667,70.1667 73.8333,69.8333 73.5,69.5C 76.0125,68.272 78.0125,66.6054 79.5,64.5C 85.5933,62.2886 91.5933,59.7886 97.5,57C 100.167,56.3333 102.833,56.3333 105.5,57C 102.424,57.3457 99.4245,58.0124 96.5,59C 97.448,59.4828 98.448,59.6495 99.5,59.5 Z"/></g>
<g><path style="opacity:1" fill="#696031" d="M 162.5,63.5 C 162.369,64.3764 162.702,65.0431 163.5,65.5C 165.167,66.1667 166.833,66.8333 168.5,67.5C 169.833,68.1667 169.833,68.8333 168.5,69.5C 161.394,65.613 154.061,62.2797 146.5,59.5C 145.893,59.6236 145.56,59.9569 145.5,60.5C 144.833,60.1667 144.167,59.8333 143.5,59.5C 142.209,59.7373 141.209,59.404 140.5,58.5C 145.794,58.3178 145.794,57.8178 140.5,57C 142.167,56.3333 143.833,56.3333 145.5,57C 151.386,58.6827 157.053,60.8494 162.5,63.5 Z"/></g>
<g><path style="opacity:1" fill="#0f0b09" d="M 175.5,44.5 C 174.97,47.716 174.304,50.8826 173.5,54C 176.008,56.6896 178.008,59.6896 179.5,63C 167.326,74.5736 155.993,73.7402 145.5,60.5C 145.56,59.9569 145.893,59.6236 146.5,59.5C 154.061,62.2797 161.394,65.613 168.5,69.5C 169.833,68.8333 169.833,68.1667 168.5,67.5C 166.833,66.8333 165.167,66.1667 163.5,65.5C 162.702,65.0431 162.369,64.3764 162.5,63.5C 166.46,59.6028 169.96,55.2695 173,50.5C 173.002,47.9488 173.836,45.9488 175.5,44.5 Z"/></g>
<g><path style="opacity:1" fill="#0a070a" d="M 67.5,50.5 C 68.1667,50.5 68.8333,50.5 69.5,50.5C 72.8333,55.1667 76.1667,59.8333 79.5,64.5C 78.0125,66.6054 76.0125,68.272 73.5,69.5C 73.8333,69.8333 74.1667,70.1667 74.5,70.5C 81.8003,66.1675 89.467,62.8342 97.5,60.5C 92.3103,69.0949 84.6436,72.9283 74.5,72C 70.4333,69.6392 66.7667,66.8059 63.5,63.5C 66.2938,59.5883 67.6272,55.255 67.5,50.5 Z"/></g>
<g><path style="opacity:1" fill="#cbc8ca" d="M 69.5,85.5 C 76.5,85.1667 79.8333,88.5 79.5,95.5C 92.0546,90.541 101.555,93.8743 108,105.5C 108.922,109.701 108.422,113.701 106.5,117.5C 110.844,119.671 114.844,122.337 118.5,125.5C 112.559,128.4 107.393,132.4 103,137.5C 100.265,150.033 96.9313,162.366 93,174.5C 91.3804,176.241 89.8804,178.075 88.5,180C 83.1753,182.327 78.1753,185.16 73.5,188.5C 73.9313,191.598 73.9313,194.764 73.5,198C 66.7875,197.643 60.4542,195.643 54.5,192C 47.5507,187.946 40.7174,183.779 34,179.5C 33.3828,178.551 33.5494,177.718 34.5,177C 36.3921,176.027 38.3921,175.36 40.5,175C 41.3567,174.311 42.0233,173.478 42.5,172.5C 40.1207,169.243 39.1207,165.576 39.5,161.5C 30.9487,162.677 27.9487,159.01 30.5,150.5C 32.1667,149.5 33.5,148.167 34.5,146.5C 28.8955,120.308 38.8955,103.308 64.5,95.5C 65.3142,93.2338 65.8142,90.9005 66,88.5C 67.1451,87.3636 68.3117,86.3636 69.5,85.5 Z"/></g>
<g><path style="opacity:1" fill="#0e0c0d" d="M 46.5,137.5 C 45.8826,137.611 45.3826,137.944 45,138.5C 44.5012,134.514 44.3345,130.514 44.5,126.5C 48.1177,115.512 55.7844,110.179 67.5,110.5C 65.0814,119.424 59.5814,125.758 51,129.5C 49.2226,132.059 47.7226,134.726 46.5,137.5 Z"/></g>
<g><path style="opacity:1" fill="#cac6c8" d="M 168.5,84.5 C 175.247,84.2404 178.914,87.5738 179.5,94.5C 205.221,101.919 215.721,118.919 211,145.5C 217.186,149.069 218.02,153.569 213.5,159C 210.854,159.497 208.187,159.664 205.5,159.5C 205.891,163.383 205.224,167.05 203.5,170.5C 205.123,172.895 207.456,174.228 210.5,174.5C 211.583,175.365 211.749,176.365 211,177.5C 199.93,186.119 187.763,192.786 174.5,197.5C 173.328,197.081 172.328,196.415 171.5,195.5C 172.96,192.971 173.46,190.304 173,187.5C 168.528,184.347 163.694,181.847 158.5,180C 155.611,177.114 153.111,173.948 151,170.5C 147.664,159.155 144.331,147.822 141,136.5C 136.935,131.54 131.768,128.54 125.5,127.5C 125.679,125.394 126.679,123.728 128.5,122.5C 131.617,120.752 134.617,118.919 137.5,117C 132.974,109.318 134.308,102.652 141.5,97C 148.674,92.0052 156.341,91.1719 164.5,94.5C 163.75,90.2246 165.083,86.8913 168.5,84.5 Z"/></g>
<g><path style="opacity:1" fill="#0b090a" d="M 176.5,109.5 C 194.854,109.834 202.688,119.168 200,137.5C 198.234,135.404 196.901,133.071 196,130.5C 190.483,126.406 185.15,122.073 180,117.5C 178.519,114.89 177.352,112.223 176.5,109.5 Z"/></g>
<g><path style="opacity:1" fill="#858386" d="M 44.5,126.5 C 44.3345,130.514 44.5012,134.514 45,138.5C 45.3826,137.944 45.8826,137.611 46.5,137.5C 46.1788,139.048 45.1788,139.715 43.5,139.5C 43.1818,134.968 43.5151,130.634 44.5,126.5 Z"/></g>
</svg>

<svg xmlns="http://www.w3.org/2000/svg" width="250" height="274" style="shape-rendering:geometricPrecision;text-rendering:geometricPrecision;image-rendering:optimizeQuality;fill-rule:evenodd;clip-rule:evenodd"><path style="opacity:1" fill="#fdfdfd" d="M-.5-.5h250v274H-.5V-.5z"/><path style="opacity:1" fill="#6e7550" d="M91.5 19.5c-5.325-8.665-7.325-7.998-6 2-1.526-.992-2.193-2.492-2-4.5-.396-3.939 1.27-5.272 5-4 1.95 1.734 2.95 3.9 3 6.5z"/><path style="opacity:1" fill="#6b7c56" d="M122.5 10.5c3.294 2.456 3.627 5.123 1 8a24.93 24.93 0 0 0-1-8z"/><path style="opacity:1" fill="#9d9d44" d="M157.5 14.5a53.768 53.768 0 0 0-2 8v1c-3.392-1.49-4.726-4.157-4-8 .792-1.757 2.125-3.09 4-4 1.419.505 2.085 1.505 2 3z"/><path style="opacity:1" fill="#5b633c" d="M122.5 10.5c-3.195.013-4.862 1.68-5 5a19.478 19.478 0 0 1 2 9c.184 2.705-.483 5.038-2 7 .249-2.502.583-5.002 1-7.5-1.534-3.702-2.034-7.535-1.5-11.5 1.204-3.84 3.037-4.507 5.5-2z"/><path style="opacity:1" fill="#797a5b" d="M157.5 14.5c1.202 2.987.535 5.654-2 8a53.768 53.768 0 0 1 2-8z"/><path style="opacity:1" fill="#aa9f45" d="M91.5 19.5v4c-2.358.247-4.358-.42-6-2-1.325-9.998.675-10.665 6-2z"/><path style="opacity:1" fill="#7a794c" d="M123.5 20.5a49.367 49.367 0 0 0 1 11c-3.322-3.544-3.655-7.211-1-11z"/><path style="opacity:1" fill="#817b40" d="M151.5 15.5c-.726 3.843.608 6.51 4 8-1.5 3.826-2.166 7.826-2 12a73.515 73.515 0 0 0-4-7 60.93 60.93 0 0 1 .5-11c.278-.916.778-1.582 1.5-2z"/><path style="opacity:1" fill="#6a7254" d="M55.5 30.5c2.415-1.148 4.415-.482 6 2l-6-2z"/><path style="opacity:1" fill="#a7a247" d="m55.5 30.5 6 2c-.185 6.06-2.019 6.393-5.5 1a4.932 4.932 0 0 1-.5-3z"/><path style="opacity:1" fill="#76744c" d="M183.5 36.5a45.428 45.428 0 0 1-8 8c.548-1.894 1.548-3.56 3-5-.733-.587-1.733-.587-3 0a44.098 44.098 0 0 1 8-11.5c2.73-.942 4.063.058 4 3-.029 2.925-1.362 4.758-4 5.5z"/><path style="opacity:1" fill="#a5a146" d="M183.5 36.5c-1.467.792-2.8.792-4 0 .813-4.031 3.146-6.364 7-7-.188 2.706-1.188 5.04-3 7z"/><path style="opacity:1" fill="#7f804a" d="M91.5 19.5c.82 2.805 1.32 5.805 1.5 9a17.343 17.343 0 0 1 3.5 7c-2.613-2.511-4.78-5.511-6.5-9a89.314 89.314 0 0 1-1.5 12c.745 3.617-.921 5.617-5 6 5.861-7.221 6.528-14.888 2-23 1.642 1.58 3.642 2.247 6 2v-4z"/><path style="opacity:1" fill="#787b45" d="M55.5 30.5a4.932 4.932 0 0 0 .5 3c3.481 5.393 5.315 5.06 5.5-1 2.868 7.031 8.034 11.364 15.5 13a29.51 29.51 0 0 1 6.5-1c-1.85 1.337-4.016 2.003-6.5 2a22.763 22.763 0 0 0-8.5-.5l2 1c-.837 1.011-1.17 2.178-1 3.5h-2a8.434 8.434 0 0 0-.5-4 54.912 54.912 0 0 0-11-10c-1.542-2.065-1.709-4.065-.5-6z"/><path style="opacity:1" fill="#a2983a" d="M122.5 10.5a24.93 24.93 0 0 1 1 8v2c-2.655 3.789-2.322 7.456 1 11 1.762.762 2.762 2.096 3 4 1.091 2.928 3.091 5.094 6 6.5-15.448-.577-30.448 1.257-45 5.5a443.657 443.657 0 0 0 32-4c7.671.668 15.338 1.335 23 2a87.214 87.214 0 0 1 24 6.5c-7.167-4.926-15.167-7.426-24-7.5a30.446 30.446 0 0 1-9-1.5c1.566-.608 2.9-1.441 4-2.5h1c5.165-2.496 8.498-6.496 10-12a73.515 73.515 0 0 1 4 7c1.653 2.63 3.319 5.297 5 8 4.453 2.463 9.12 2.63 14 .5 1.641-1.129 2.641-2.629 3-4.5 1.267-.587 2.267-.587 3 0-1.452 1.44-2.452 3.106-3 5-1.664 1.449-2.498 3.449-2.5 6a73.889 73.889 0 0 1-10.5 13 104.281 104.281 0 0 0-17-6.5c-1.667-.667-3.333-.667-5 0 5.294.818 5.294 1.318 0 1.5a481.891 481.891 0 0 0-25-2.5l12-1-5-1c5.066-3.39 4.566-6.222-1.5-8.5-5.142 1.92-5.642 4.587-1.5 8a50.422 50.422 0 0 1-13 2.5l8 1a273.515 273.515 0 0 1-15 2.5 4.932 4.932 0 0 1-3-.5 43.087 43.087 0 0 1 9-2 16.25 16.25 0 0 0-8 0 209.766 209.766 0 0 1-18 7.5l-10-14c-.17-1.322.163-2.489 1-3.5l-2-1a22.763 22.763 0 0 1 8.5.5c2.484.003 4.65-.663 6.5-2 4.079-.383 5.745-2.383 5-6a89.314 89.314 0 0 0 1.5-12c1.72 3.489 3.887 6.489 6.5 9a33.932 33.932 0 0 0 10.5 6 39.904 39.904 0 0 1 6.5-4c2.322-1.302 3.655-3.302 4-6 1.517-1.962 2.184-4.295 2-7a19.478 19.478 0 0 0-2-9c.138-3.32 1.805-4.987 5-5z"/><path style="opacity:1" fill="#656428" d="M143.5 44.5c8.833.074 16.833 2.574 24 7.5a87.214 87.214 0 0 0-24-6.5v-1z"/><path style="opacity:1" fill="#554c2d" d="M127.5 35.5a31.418 31.418 0 0 1 5 4.5c1.973.495 3.973.662 6 .5-1.1 1.059-2.434 1.892-4 2.5a30.446 30.446 0 0 0 9 1.5v1c-7.662-.665-15.329-1.332-23-2a443.657 443.657 0 0 1-32 4c14.552-4.243 29.552-6.077 45-5.5-2.909-1.406-4.909-3.572-6-6.5z"/><path style="opacity:1" fill="#62653e" d="M175.5 39.5c-.359 1.871-1.359 3.371-3 4.5-4.88 2.13-9.547 1.963-14-.5 6.548 2.19 12.215.856 17-4z"/><path style="opacity:1" fill="#56573e" d="M117.5 31.5c-.345 2.698-1.678 4.698-4 6 .84-2.352 2.174-4.352 4-6z"/><path style="opacity:1" fill="#686a46" d="M149.5 28.5c-1.502 5.504-4.835 9.504-10 12a84.316 84.316 0 0 0 10-12z"/><path style="opacity:1" fill="#626223" d="M88.5 47.5a122.745 122.745 0 0 1-14 5.5c4.112-3.222 8.78-5.056 14-5.5z"/><path style="opacity:1" fill="#030303" d="M140.5 58.5c.709.904 1.709 1.237 3 1 3.752 8.246 10.086 13.412 19 15.5a64.247 64.247 0 0 0 16 0 131.719 131.719 0 0 1 18-4A1471.58 1471.58 0 0 0 226 92.5c-2.302 4.718-4.302 9.718-6 15-.28 4.697-.78 9.363-1.5 14a847.244 847.244 0 0 1 9 53.5c-2.713 23.427-13.046 42.76-31 58a110.08 110.08 0 0 1-21 11c-11.656 2.996-23.323 5.996-35 9-7.053 2.73-12.553 7.23-16.5 13.5a32.005 32.005 0 0 0-5.5-7.5l-12-6c-17.777-2.595-34.777-7.595-51-15-21.51-14.673-33.843-35.007-37-61a1370.014 1370.014 0 0 1 7-56.5c.183-5.949-.983-11.615-3.5-17a32 32 0 0 0-5.5-7.5 1134.338 1134.338 0 0 0 32-24.5c13.436 5.968 27.103 6.468 41 1.5 4.307-3.465 7.64-7.631 10-12.5v-1a273.515 273.515 0 0 0 15-2.5l-8-1a50.422 50.422 0 0 0 13-2.5c-4.142-3.413-3.642-6.08 1.5-8 6.066 2.278 6.566 5.11 1.5 8.5l5 1-12 1c8.365.617 16.698 1.45 25 2.5z"/><path style="opacity:1" fill="#635a2f" d="M99.5 59.5v1h-2c-8.033 2.334-15.7 5.668-23 10l-1-1c2.513-1.228 4.513-2.895 6-5a209.766 209.766 0 0 0 18-7.5 16.25 16.25 0 0 1 8 0 43.087 43.087 0 0 0-9 2c.948.483 1.948.65 3 .5z"/><path style="opacity:1" fill="#696031" d="M162.5 63.5c-.131.876.202 1.543 1 2l5 2c1.333.667 1.333 1.333 0 2a162.944 162.944 0 0 0-22-10c-.607.124-.94.457-1 1l-2-1c-1.291.237-2.291-.096-3-1 5.294-.182 5.294-.682 0-1.5 1.667-.667 3.333-.667 5 0a104.281 104.281 0 0 1 17 6.5z"/><path style="opacity:1" fill="#0f0b09" d="M175.5 44.5a108.974 108.974 0 0 1-2 9.5 33.004 33.004 0 0 1 6 9c-12.174 11.574-23.507 10.74-34-2.5.06-.543.393-.876 1-1a162.944 162.944 0 0 1 22 10c1.333-.667 1.333-1.333 0-2l-5-2c-.798-.457-1.131-1.124-1-2a73.889 73.889 0 0 0 10.5-13c.002-2.551.836-4.551 2.5-6z"/><path style="opacity:1" fill="#0a070a" d="M67.5 50.5h2l10 14c-1.487 2.105-3.487 3.772-6 5l1 1c7.3-4.332 14.967-7.666 23-10-5.19 8.595-12.856 12.428-23 11.5a52.306 52.306 0 0 1-11-8.5c2.794-3.912 4.127-8.245 4-13z"/><path style="opacity:1" fill="#cbc8ca" d="M69.5 85.5c7-.333 10.333 3 10 10 12.555-4.959 22.055-1.626 28.5 10 .922 4.201.422 8.201-1.5 12a57.668 57.668 0 0 1 12 8c-5.941 2.9-11.107 6.9-15.5 12a389.178 389.178 0 0 1-10 37 55.861 55.861 0 0 0-4.5 5.5 82.691 82.691 0 0 0-15 8.5c.431 3.098.431 6.264 0 9.5-6.713-.357-13.046-2.357-19-6A614.333 614.333 0 0 1 34 179.5c-.617-.949-.45-1.782.5-2.5a20.641 20.641 0 0 1 6-2 7.248 7.248 0 0 0 2-2.5c-2.38-3.257-3.38-6.924-3-11-8.551 1.177-11.551-2.49-9-11 1.667-1 3-2.333 4-4-5.605-26.192 4.395-43.192 30-51a26.706 26.706 0 0 0 1.5-7 30.139 30.139 0 0 1 3.5-3z"/><path style="opacity:1" fill="#0e0c0d" d="M46.5 137.5c-.617.111-1.117.444-1.5 1a72.442 72.442 0 0 1-.5-12c3.618-10.988 11.284-16.321 23-16-2.419 8.924-7.919 15.258-16.5 19a47.791 47.791 0 0 0-4.5 8z"/><path style="opacity:1" fill="#cac6c8" d="M168.5 84.5c6.747-.26 10.414 3.074 11 10 25.721 7.419 36.221 24.419 31.5 51 6.186 3.569 7.02 8.069 2.5 13.5a32.462 32.462 0 0 1-8 .5c.391 3.883-.276 7.55-2 11 1.623 2.395 3.956 3.728 7 4 1.083.865 1.249 1.865.5 3-11.07 8.619-23.237 15.286-36.5 20a7.293 7.293 0 0 1-3-2c1.46-2.529 1.96-5.196 1.5-8a59.83 59.83 0 0 0-14.5-7.5 51.107 51.107 0 0 1-7.5-9.5l-10-34c-4.065-4.96-9.232-7.96-15.5-9 .179-2.106 1.179-3.772 3-5a138.448 138.448 0 0 0 9-5.5c-4.526-7.682-3.192-14.348 4-20 7.174-4.995 14.841-5.828 23-2.5-.75-4.275.583-7.609 4-10z"/><path style="opacity:1" fill="#0b090a" d="M176.5 109.5c18.354.334 26.188 9.668 23.5 28a22.144 22.144 0 0 1-4-7 234.977 234.977 0 0 1-16-13 41.002 41.002 0 0 1-3.5-8z"/><path style="opacity:1" fill="#858386" d="M44.5 126.5a72.442 72.442 0 0 0 .5 12c.383-.556.883-.889 1.5-1-.321 1.548-1.321 2.215-3 2-.318-4.532.015-8.866 1-13z"/></svg>
